X:7956
T:The bagpiper
C:anon.
O:Czech republic
F:http://abc.musicaviva.com/tunes/czech/the-bagpiper/the-bagpiper.abc
M:2/4
L:1/8
K:C
g2ef|g2ef|gfed|c2c2|d2de|d2de|gfed|c2c2|]
W:
W:
W:  From Musica Viva - http://www.musicaviva.com
W:  the Internet center for free sheet music downloads.
